src/assets/images/logos/intuit.svg

<?xml version="1.0" encoding="utf-8"?>
<svg width="130" height="39" viewBox="0 0 130 39" fill="none" xmlns="http://www.w3.org/2000/svg">
<path d="M88.57 38.1153H85.098C84.3926 38.1153 83.8519 37.7368 83.799 37.0343L83.7438 35.6798C81.247 37.685 78.2638 38.7656 75.1176 38.7656C69.0434 38.7656 66.5496 34.9258 66.5496 29.0779V13.0704C66.5496 12.1498 67.0916 11.8248 67.9567 11.8248H71.7554C72.6241 11.8248 73.1129 12.094 73.1129 13.0704V27.9406C73.1129 30.9185 73.8719 32.9738 77.1276 32.9738C79.1855 32.9738 81.791 31.8387 83.4184 30.3773V13.0704C83.4184 12.1498 83.9075 11.8248 84.7726 11.8248H88.6239C89.4929 11.8248 89.982 12.094 89.982 13.0704V36.6011C89.9814 37.7368 89.6537 38.1153 88.57 38.1153ZM0.298828 12.9044C0.298828 12.2567 0.62489 11.8235 1.27471 11.8235H5.86325C6.51373 11.8235 6.89337 12.2026 6.89337 12.9044V36.7624C6.89337 37.7368 6.45752 38.1153 5.53752 38.1153H1.70957C0.736317 38.1153 0.298828 37.7368 0.298828 36.7624V12.9044ZM96.7679 12.9044C96.7679 12.2567 97.0956 11.8235 97.7447 11.8235H102.333C102.985 11.8235 103.364 12.2026 103.364 12.9044V36.7624C103.364 37.7368 102.93 38.1153 102.007 38.1153H98.1786C97.205 38.1153 96.7679 37.7368 96.7679 36.7624V12.9044ZM35.9685 38.1153H32.0636C31.0877 38.1153 30.7626 37.6289 30.7626 36.7077V21.9864C30.7626 19.0114 29.9504 16.9 26.6399 16.9C24.5237 16.9 21.9215 18.0387 20.2402 19.4978V36.7621C20.2402 37.6847 19.8603 38.1149 18.9399 38.1149H14.9789C14.165 38.1149 13.6763 37.6847 13.6763 36.8165V13.1829C13.6763 12.3164 14.0585 11.83 15.0334 11.83H18.5573C19.3163 11.83 19.8073 12.0455 19.8599 12.8572L19.9135 14.3019C22.4106 12.301 25.5565 11.1653 28.7027 11.1653C34.7776 11.1653 37.272 14.9529 37.272 20.852V36.7077C37.2717 37.6289 36.9473 38.1153 35.9685 38.1153ZM55.2998 4.43874C55.2998 2.24631 53.5199 0.46875 51.3223 0.46875C49.126 0.46875 47.3435 2.24631 47.3435 4.43874C47.3435 6.63117 49.1263 8.40676 51.3223 8.40676C53.5199 8.40676 55.2998 6.63117 55.2998 4.43874ZM60.9609 11.8235C61.6113 11.8235 61.9913 12.039 61.9913 12.7434V16.5547C61.9913 17.2037 61.5581 17.5828 60.906 17.5828H54.6197V36.7621C54.6197 37.7365 54.1862 38.1149 53.209 38.1149H49.4346C48.4581 38.1149 48.0252 37.7365 48.0252 36.7621V17.5828H41.7373C41.0868 17.5828 40.653 17.2037 40.653 16.5547V12.7434C40.653 12.039 41.0323 11.8235 41.6837 11.8235H60.9609ZM122.61 4.43874C122.61 2.24631 120.828 0.46875 118.631 0.46875C116.434 0.46875 114.653 2.24631 114.653 4.43874C114.653 6.63117 116.434 8.40676 118.631 8.40676C120.828 8.40676 122.61 6.63117 122.61 4.43874ZM128.27 11.8235C128.92 11.8235 129.299 12.039 129.299 12.7434V16.5547C129.299 17.2037 128.867 17.5828 128.214 17.5828H121.928V36.7621C121.928 37.7365 121.495 38.1149 120.518 38.1149H116.743C115.766 38.1149 115.333 37.7365 115.333 36.7621L115.332 17.5828H109.047C108.395 17.5828 107.961 17.2037 107.961 16.5547V12.7434C107.961 12.039 108.342 11.8235 108.991 11.8235H128.27Z" fill="#1F3D56"/>
</svg>

<svg width="130" height="39" fill="none" xmlns="http://www.w3.org/2000/svg"><path d="M88.57 38.115h-3.472c-.705 0-1.246-.378-1.299-1.08l-.055-1.355c-2.497 2.005-5.48 3.086-8.626 3.086-6.075 0-8.568-3.84-8.568-9.688V13.07c0-.92.542-1.245 1.407-1.245h3.798c.87 0 1.358.269 1.358 1.245v14.87c0 2.979.759 5.034 4.015 5.034 2.058 0 4.663-1.135 6.29-2.597V13.07c0-.92.49-1.245 1.355-1.245h3.85c.87 0 1.359.269 1.359 1.245v23.531c0 1.136-.328 1.514-1.412 1.514zM.299 12.905c0-.648.326-1.082.976-1.082h4.588c.65 0 1.03.38 1.03 1.081v23.858c0 .975-.435 1.353-1.355 1.353H1.71c-.974 0-1.411-.378-1.411-1.353V12.904zm96.469 0c0-.648.328-1.082.977-1.082h4.588c.652 0 1.031.38 1.031 1.081v23.858c0 .975-.434 1.353-1.357 1.353h-3.828c-.974 0-1.411-.378-1.411-1.353V12.904zm-60.8 25.21h-3.904c-.976 0-1.301-.486-1.301-1.407V21.986c0-2.975-.813-5.086-4.123-5.086-2.116 0-4.718 1.139-6.4 2.598v17.264c0 .923-.38 1.353-1.3 1.353h-3.961c-.814 0-1.303-.43-1.303-1.299V13.183c0-.867.383-1.353 1.357-1.353h3.524c.76 0 1.25.216 1.303 1.027l.053 1.445c2.498-2.001 5.643-3.137 8.79-3.137 6.075 0 8.569 3.788 8.569 9.687v15.856c0 .92-.325 1.407-1.303 1.407zM55.3 4.44c0-2.193-1.78-3.97-3.978-3.97a3.975 3.975 0 00-3.979 3.97 3.974 3.974 0 003.98 3.968A3.972 3.972 0 0055.3 4.439zm5.66 7.384c.651 0 1.031.216 1.031.92v3.812c0 .649-.433 1.028-1.085 1.028H54.62v19.18c0 .974-.434 1.352-1.411 1.352h-3.774c-.977 0-1.41-.379-1.41-1.353v-19.18h-6.288c-.65 0-1.084-.378-1.084-1.027v-3.812c0-.704.38-.92 1.03-.92h19.278zm61.65-7.384a3.975 3.975 0 00-3.979-3.97 3.974 3.974 0 00-3.978 3.97 3.972 3.972 0 003.978 3.968 3.973 3.973 0 003.979-3.968zm5.66 7.384c.65 0 1.029.216 1.029.92v3.812c0 .649-.432 1.028-1.085 1.028h-6.286v19.18c0 .974-.433 1.352-1.41 1.352h-3.775c-.977 0-1.41-.379-1.41-1.353l-.001-19.18h-6.285c-.652 0-1.086-.378-1.086-1.027v-3.812c0-.704.381-.92 1.03-.92h19.279z" fill="#1F3D56"/></svg>
